src/front_assets/svg/fullscreen.svg

<!DOCTYPE svg PUBLIC "-//W3C//DTD SVG 1.1//EN" "http://www.w3.org/Graphics/SVG/1.1/DTD/svg11.dtd">
<!-- Uploaded to: SVG Repo, www.svgrepo.com, Transformed by: SVG Repo Mixer Tools -->
<svg width="800px" height="800px" viewBox="0 0 24 24" fill="none" xmlns="http://www.w3.org/2000/svg">
<g id="SVGRepo_bgCarrier" stroke-width="0"/>
<g id="SVGRepo_tracerCarrier" stroke-linecap="round" stroke-linejoin="round"/>
<g id="SVGRepo_iconCarrier"> <g id="style=doutone"> <g id="fullscreen"> <path id="vector (Stroke)" fill-rule="evenodd" clip-rule="evenodd" d="M1.25 4C1.25 2.48122 2.48122 1.25 4 1.25H8C8.41421 1.25 8.75 1.58579 8.75 2C8.75 2.41421 8.41421 2.75 8 2.75H4C3.30964 2.75 2.75 3.30964 2.75 4V8C2.75 8.41421 2.41421 8.75 2 8.75C1.58579 8.75 1.25 8.41421 1.25 8V4Z" fill="#1C274C"/> <path id="vector (Stroke)_2" fill-rule="evenodd" clip-rule="evenodd" d="M20 1.25C21.5188 1.25 22.75 2.48122 22.75 4L22.75 8C22.75 8.41421 22.4142 8.75 22 8.75C21.5858 8.75 21.25 8.41421 21.25 8L21.25 4C21.25 3.30964 20.6904 2.75 20 2.75L16 2.75C15.5858 2.75 15.25 2.41421 15.25 2C15.25 1.58579 15.5858 1.25 16 1.25L20 1.25Z" fill="#BFBFBF"/> <path id="vector (Stroke)_3" fill-rule="evenodd" clip-rule="evenodd" d="M22.75 20C22.75 21.5188 21.5188 22.75 20 22.75L16 22.75C15.5858 22.75 15.25 22.4142 15.25 22C15.25 21.5858 15.5858 21.25 16 21.25L20 21.25C20.6904 21.25 21.25 20.6904 21.25 20L21.25 16C21.25 15.5858 21.5858 15.25 22 15.25C22.4142 15.25 22.75 15.5858 22.75 16L22.75 20Z" fill="#1C274C"/> <path id="vector (Stroke)_4" fill-rule="evenodd" clip-rule="evenodd" d="M1.25 20C1.25 21.5188 2.48122 22.75 4 22.75L8 22.75C8.41421 22.75 8.75 22.4142 8.75 22C8.75 21.5858 8.41421 21.25 8 21.25L4 21.25C3.30964 21.25 2.75 20.6904 2.75 20L2.75 16C2.75 15.5858 2.41421 15.25 2 15.25C1.58579 15.25 1.25 15.5858 1.25 16L1.25 20Z" fill="#BFBFBF"/> </g> </g> </g>
</svg>

<svg xmlns="http://www.w3.org/2000/svg" width="800" height="800" fill="none" viewBox="0 0 24 24"><g fill-rule="evenodd" clip-rule="evenodd"><path fill="#1C274C" d="M1.25 4A2.75 2.75 0 0 1 4 1.25h4a.75.75 0 0 1 0 1.5H4c-.69 0-1.25.56-1.25 1.25v4a.75.75 0 0 1-1.5 0z"/><path fill="#BFBFBF" d="M20 1.25A2.75 2.75 0 0 1 22.75 4v4a.75.75 0 0 1-1.5 0V4c0-.69-.56-1.25-1.25-1.25h-4a.75.75 0 0 1 0-1.5z"/><path fill="#1C274C" d="M22.75 20A2.75 2.75 0 0 1 20 22.75h-4a.75.75 0 0 1 0-1.5h4c.69 0 1.25-.56 1.25-1.25v-4a.75.75 0 0 1 1.5 0z"/><path fill="#BFBFBF" d="M1.25 20A2.75 2.75 0 0 0 4 22.75h4a.75.75 0 0 0 0-1.5H4c-.69 0-1.25-.56-1.25-1.25v-4a.75.75 0 0 0-1.5 0z"/></g></svg>
